resources/haticons/SVG/casino.svg

<!-- Generated by IcoMoon.io -->
<svg version="1.1" xmlns="http://www.w3.org/2000/svg" width="24" height="24" viewBox="0 0 24 24">
<title>casino</title>
<path d="M16.5 9q0.656 0 1.078-0.422t0.422-1.078-0.422-1.078-1.078-0.422-1.078 0.422-0.422 1.078 0.422 1.078 1.078 0.422zM16.5 18q0.656 0 1.078-0.422t0.422-1.078-0.422-1.078-1.078-0.422-1.078 0.422-0.422 1.078 0.422 1.078 1.078 0.422zM12 13.5q0.656 0 1.078-0.422t0.422-1.078-0.422-1.078-1.078-0.422-1.078 0.422-0.422 1.078 0.422 1.078 1.078 0.422zM7.5 9q0.656 0 1.078-0.422t0.422-1.078-0.422-1.078-1.078-0.422-1.078 0.422-0.422 1.078 0.422 1.078 1.078 0.422zM7.5 18q0.656 0 1.078-0.422t0.422-1.078-0.422-1.078-1.078-0.422-1.078 0.422-0.422 1.078 0.422 1.078 1.078 0.422zM18.984 3q0.797 0 1.406 0.609t0.609 1.406v13.969q0 0.797-0.609 1.406t-1.406 0.609h-13.969q-0.797 0-1.406-0.609t-0.609-1.406v-13.969q0-0.797 0.609-1.406t1.406-0.609h13.969z"></path>
</svg>

<svg xmlns="http://www.w3.org/2000/svg" width="24" height="24"><path d="M16.5 9q.656 0 1.078-.422T18 7.5t-.422-1.078T16.5 6t-1.078.422T15 7.5t.422 1.078T16.5 9zm0 9q.656 0 1.078-.422T18 16.5t-.422-1.078T16.5 15t-1.078.422T15 16.5t.422 1.078T16.5 18zM12 13.5q.656 0 1.078-.422T13.5 12t-.422-1.078T12 10.5t-1.078.422T10.5 12t.422 1.078T12 13.5zM7.5 9q.656 0 1.078-.422T9 7.5t-.422-1.078T7.5 6t-1.078.422T6 7.5t.422 1.078T7.5 9zm0 9q.656 0 1.078-.422T9 16.5t-.422-1.078T7.5 15t-1.078.422T6 16.5t.422 1.078T7.5 18zM18.984 3q.797 0 1.406.609t.609 1.406v13.969q0 .797-.609 1.406t-1.406.609H5.015q-.797 0-1.406-.609T3 18.984V5.015q0-.797.609-1.406T5.015 3h13.969z"/></svg>
